!! 00000] TT[WS
!!!OTL: Zhen tongkuai
!!!ARE: Asia, China, Shanxi Shuoyang
!! Ethnic Group: Han
!! WII, 265 (2)
!!!SCT: J0797
!!!YEM: Copyright 1995, estate of Helmut Schaffrath.
**kern
*ICvox
*Ivox
*M2/4
*k[f#]
*G:
{4dd
8dd
16b
16a
=1
4.dd
8ee
=2
8cc
8b
8dd
16a
16b
=3
8g
8f#
8e
8d}
=4
{8.g
16a
8b
8dd
=5
8a
8a
4b
=6
8a
8g
8f#
8e
=7
2d}
==
!!!AGN: Xiaodiao. Xuanchuan, Xinminge
!!!ONB: ESAC (Essen Associative Code) Database: CHINA
!!!AMT: simple duple
!!!AIN: vox
!!!EED: Helmut Schaffrath
!!!EEV: 1.0
*-
